flaticon/transportation/train-6.svg

<svg xmlns="http://www.w3.org/2000/svg" width="32" height="32" viewBox="0 0 24 24">
    <path d="M 18.75 5.605469 C 18.75 3.925781 17.386719 2.5625 15.710938 2.5625 L 12.515625 2.5625 L 12.515625 1.035156 L 14.964844 1.035156 L 14.964844 0 L 9.035156 0 L 9.035156 1.035156 L 11.484375 1.035156 L 11.484375 2.5625 L 8.289062 2.5625 C 6.613281 2.5625 5.25 3.925781 5.25 5.605469 L 5.25 20.550781 L 8.097656 20.550781 L 6.683594 23.558594 L 7.617188 24 L 8.359375 22.425781 L 15.640625 22.425781 L 16.382812 24 L 17.316406 23.558594 L 15.902344 20.550781 L 18.75 20.550781 Z M 15.15625 21.390625 L 8.84375 21.390625 L 9.238281 20.550781 L 14.761719 20.550781 Z M 17.714844 19.515625 L 6.285156 19.515625 L 6.285156 5.605469 C 6.285156 4.496094 7.183594 3.597656 8.289062 3.597656 L 15.710938 3.597656 C 16.816406 3.597656 17.714844 4.496094 17.714844 5.605469 Z M 17.714844 19.515625"/>
    <path d="M16.429688 7.804688C16.429688 6.15625 15.089844 4.8125 13.441406 4.8125L10.5625 4.8125C8.910156 4.8125 7.570312 6.15625 7.570312 7.804688L7.570312 14.289062 16.429688 14.289062zM15.398438 13.257812L8.601562 13.257812 8.601562 7.804688C8.601562 6.726562 9.480469 5.847656 10.5625 5.847656L13.441406 5.847656C14.519531 5.847656 15.398438 6.726562 15.398438 7.804688zM15.144531 15.15625C14.164062 15.15625 13.371094 15.953125 13.371094 16.933594 13.371094 17.910156 14.164062 18.707031 15.144531 18.707031 16.125 18.707031 16.917969 17.910156 16.917969 16.933594 16.917969 15.953125 16.125 15.15625 15.144531 15.15625zM15.144531 17.671875C14.734375 17.671875 14.402344 17.339844 14.402344 16.933594 14.402344 16.523438 14.734375 16.191406 15.144531 16.191406 15.554688 16.191406 15.886719 16.523438 15.886719 16.933594 15.886719 17.339844 15.554688 17.671875 15.144531 17.671875zM8.855469 15.15625C7.875 15.15625 7.082031 15.953125 7.082031 16.933594 7.082031 17.910156 7.875 18.707031 8.855469 18.707031 9.835938 18.707031 10.628906 17.910156 10.628906 16.933594 10.628906 15.953125 9.835938 15.15625 8.855469 15.15625zM8.855469 17.671875C8.445312 17.671875 8.113281 17.339844 8.113281 16.933594 8.113281 16.523438 8.445312 16.191406 8.855469 16.191406 9.265625 16.191406 9.597656 16.523438 9.597656 16.933594 9.597656 17.339844 9.265625 17.671875 8.855469 17.671875zM8.855469 17.671875"/>
</svg>

<svg xmlns="http://www.w3.org/2000/svg" width="32" height="32" viewBox="0 0 24 24">
    <path d="M18.75 5.605a3.043 3.043 0 0 0-3.04-3.043h-3.194V1.036h2.449V0h-5.93v1.035h2.45v1.528H8.288A3.043 3.043 0 0 0 5.25 5.604v14.946h2.848l-1.414 3.008.933.441.742-1.574h7.282L16.383 24l.933-.441-1.414-3.008h2.848zm-3.594 15.786H8.844l.394-.84h5.524zm2.559-1.875H6.285V5.606c0-1.11.899-2.008 2.004-2.008h7.422c1.105 0 2.004.898 2.004 2.007zm0 0"/>
    <path d="M16.43 7.805a2.994 2.994 0 0 0-2.989-2.992h-2.879A2.995 2.995 0 0 0 7.57 7.804v6.484h8.86zm-1.032 5.453H8.602V7.805c0-1.078.878-1.957 1.96-1.957h2.88a1.96 1.96 0 0 1 1.956 1.957zm0 0M15.145 15.156a1.775 1.775 0 0 0 0 3.551 1.775 1.775 0 0 0 0-3.55zm0 2.516a.741.741 0 1 1 .742-.738.741.741 0 0 1-.742.738zm0 0M8.855 15.156a1.775 1.775 0 0 0 0 3.551 1.775 1.775 0 0 0 0-3.55zm0 2.516a.741.741 0 1 1 .743-.738.741.741 0 0 1-.743.738zm0 0"/>
</svg>
